!!!COM: Music21
!!!OTL: barndance_Valhalla
!!!OMV: barndance_Valhalla
**kern
*clefG2
*k[f#c#]
*D:
*M4/4
=1
4.a
8a
4b
8aL
8f#J
=
8eL
8f#J
4d
4d
8ddL
8cc#J
=
4.b
8dd
4b
8aL
8f#J
=
8aL
8bJ
4e
4e
8dL
8eJ
=
4f#
8ddL
8cc#J
4.b
8b
=
8aL
8f#J
8eL
8dJ
4B
[4A
!!linebreak:original
=
8AL]
8BJ
8dL
8eJ
4f#
8eL
8dJ
=
4.d
8d
8dL
8eJ
8f#L
8gJ
=||
*M4/4
4.a
8a
4b
8aL
8f#J
=
8eL
8f#J
4d
4d
8ddL
8cc#J
=
4.b
8dd
4b
8aL
8f#J
=
8aL
8bJ
4e
4e
8dL
8eJ
!!linebreak:original
=
4f#
8ddL
8cc#J
4.b
8b
=
8aL
8f#J
8eL
8dJ
4B
[4A
=
8AL]
8BJ
8dL
8eJ
4f#
8eL
8dJ
=
4.d
8d
8dL
8eJ
8f#L
8aJ
=||
4b
8aL
8f#J
4a
8aL
8bJ
=
8ddL
8eeJ
4ff#
4ff#
8eeL
8ddJ
!!linebreak:original
=
8ff#L
8aaJ
4bb
8bbL
8aaJ
8ff#L
8ddJ
=
2.ee
8aaL
8bbJ
=
4ff#
8eeL
8ddJ
4b
8ddL
8bJ
=
8aL
8f#J
8eL
8dJ
4B
[4A
=
8AL]
8BJ
8dL
8eJ
4f#
8eL
8dJ
=
4.d
8d
8dL
8eJ
8f#L
8aJ
!!linebreak:original
=||
4b
8aL
8f#J
4a
8aL
8bJ
=
8ddL
8eeJ
4ff#
4ff#
8eeL
8ddJ
=
8ff#L
8aaJ
4bb
8bbL
8aaJ
8ff#L
8ddJ
=
2.ee
8aaL
8bbJ
=
4ff#
8eeL
8ddJ
4b
8ddL
8bJ
=
8aL
8f#J
8eL
8dJ
4B
[4A
!!linebreak:original
=
8AL]
8BJ
8dL
8eJ
4f#
8eL
8dJ
=
4.d
8d
8dL
8eJ
8f#L
8aJ
=||
*-
